X: 20327
T: John Brosnan's
R: polka
M: 2/4
K: Dmajor
|:A,|D>C DB|AF- F>B|AF DE|FE EF/E/|
D2 DB|AF FB|AF EF|D2 D:|
|:F/A/|d2 cA|BA F/G/A|de/d/ c d/c/|B2 Bc|
d2 c2|BA FD|AF EF|D2- D:|
|:F/A/|dc/d/ ed/e/|f2- fe|dA Bc|d2 dA|
B2 AF|B/c/d/B/ AF|G/F/E EF|D2- D:|

